X:4564
L:1/16
Q:1/4=104
M:3/4
K:A
 eaga eaga e4 | fefg a2e2 c2A2 | d2fe d2c2 B2A2 | E2GB e2B2 G2E2 | Edcd edcd E2d2 | 
 cABc defg aecA | Edcd edcd E2d2 | cABc defg aecA | d2fd c2dc E2d2 | cBAG A4 A,4 ::

